svgs/solid/circle-i.svg

<svg xmlns="http://www.w3.org/2000/svg" viewBox="0 0 512 512"><!-- Font Awesome Pro 6.0.0-alpha2 by @fontawesome - https://fontawesome.com License - https://fontawesome.com/license (Commercial License) --><path d="M256 16C123.451 16 16 123.451 16 256S123.451 496 256 496S496 388.549 496 256S388.549 16 256 16ZM328 336C341.25 336 352 346.75 352 360S341.25 384 328 384H184C170.75 384 160 373.25 160 360S170.75 336 184 336H232V176H184C170.75 176 160 165.25 160 152S170.75 128 184 128H328C341.25 128 352 138.75 352 152S341.25 176 328 176H280V336H328Z"/></svg>

<svg xmlns="http://www.w3.org/2000/svg" viewBox="0 0 512 512"><!--! Font Awesome Pro 6.0.0-alpha3 by @fontawesome - https://fontawesome.com License - https://fontawesome.com/license (Commercial License) --><path d="M256 0C114.6 0 0 114.6 0 256s114.6 256 256 256s256-114.6 256-256S397.4 0 256 0zM328 336c13.25 0 24 10.75 24 24S341.3 384 328 384h-144C170.8 384 160 373.3 160 360s10.75-24 24-24h48v-160h-48C170.8 176 160 165.3 160 152S170.8 128 184 128h144C341.3 128 352 138.8 352 152S341.3 176 328 176h-48v160H328z"/></svg>
